X: 34016
T: Reel Circulaire
R: reel
M: 4/4
K: Gminor
|:D2D2 ED2B-|BBBB cBBG|D2DD EDDE-|EEEE FEEC|
D2D2 ED2B-|BBBB cBBG|D2DD EDDE-|1 EEEE FEEC:|2 EEEE FEED||
EG,CE G,CEG,|CDG,E FG,EG,|EG,CE G,CEG,|CDG,E FEEF|
D3A BA2c-|cAAA BAAF|D2A2 BA2c-|cAAA BAAD|
EECE ECEE|CEEC FCEC|ECCE CC=EC|CFCC GGGD|
D3A BA2c-|cAAA BAAF|D3A BA2c-|cddd dddA||

